svgs/thin/calendar-users.svg

<svg xmlns="http://www.w3.org/2000/svg" viewBox="0 0 640 512"><!--! Font Awesome Pro 6.6.0 by @fontawesome - https://fontawesome.com License - https://fontawesome.com/license (Commercial License) Copyright 2024 Fonticons, Inc. --><path d="M216 0c4.4 0 8 3.6 8 8l0 56 192 0 0-56c0-4.4 3.6-8 8-8s8 3.6 8 8l0 56 48 0c35.3 0 64 28.7 64 64l0 48 0 16-16 0-48 0-320 0-48 0-16 0 0-16 0-48c0-35.3 28.7-64 64-64l48 0 0-56c0-4.4 3.6-8 8-8zm31.4 512c2.9-5 5.1-10.3 6.5-16l132 0c1.5 5.7 3.7 11 6.5 16l-145.1 0zM208 120l0-40-48 0c-26.5 0-48 21.5-48 48l0 48 416 0 0-48c0-26.5-21.5-48-48-48l-48 0 0 40c0 4.4-3.6 8-8 8s-8-3.6-8-8l0-40L224 80l0 40c0 4.4-3.6 8-8 8s-8-3.6-8-8zM528 368a64 64 0 1 0 0-128 64 64 0 1 0 0 128zm-48 64c-26.5 0-48 21.5-48 48c0 8.8 7.2 16 16 16l160 0c8.8 0 16-7.2 16-16c0-26.5-21.5-48-48-48l-96 0zM448 304a80 80 0 1 1 160 0 80 80 0 1 1 -160 0zM416 480c0-35.3 28.7-64 64-64l96 0c35.3 0 64 28.7 64 64c0 17.7-14.3 32-32 32l-160 0c-17.7 0-32-14.3-32-32zM176 304A64 64 0 1 0 48 304a64 64 0 1 0 128 0zM16 480c0 8.8 7.2 16 16 16l160 0c8.8 0 16-7.2 16-16c0-26.5-21.5-48-48-48l-96 0c-26.5 0-48 21.5-48 48zm96-256a80 80 0 1 1 0 160 80 80 0 1 1 0-160zM64 416l96 0c35.3 0 64 28.7 64 64c0 17.7-14.3 32-32 32L32 512c-17.7 0-32-14.3-32-32c0-35.3 28.7-64 64-64z"/></svg>

<svg xmlns="http://www.w3.org/2000/svg" viewBox="0 0 640 512"><!--! Font Awesome Pro 6.4.2 by @fontawesome - https://fontawesome.com License - https://fontawesome.com/license (Commercial License) Copyright 2023 Fonticons, Inc. --><path d="M216 0c4.4 0 8 3.6 8 8V64H416V8c0-4.4 3.6-8 8-8s8 3.6 8 8V64h48c35.3 0 64 28.7 64 64v48 16H528 480 160 112 96V176 128c0-35.3 28.7-64 64-64h48V8c0-4.4 3.6-8 8-8zm31.4 512c2.9-5 5.1-10.3 6.5-16H386c1.5 5.7 3.7 11 6.5 16H247.4zM208 120V80H160c-26.5 0-48 21.5-48 48v48H528V128c0-26.5-21.5-48-48-48H432v40c0 4.4-3.6 8-8 8s-8-3.6-8-8V80H224v40c0 4.4-3.6 8-8 8s-8-3.6-8-8zM528 368a64 64 0 1 0 0-128 64 64 0 1 0 0 128zm-48 64c-26.5 0-48 21.5-48 48c0 8.8 7.2 16 16 16H608c8.8 0 16-7.2 16-16c0-26.5-21.5-48-48-48H480zM448 304a80 80 0 1 1 160 0 80 80 0 1 1 -160 0zM416 480c0-35.3 28.7-64 64-64h96c35.3 0 64 28.7 64 64c0 17.7-14.3 32-32 32H448c-17.7 0-32-14.3-32-32zM176 304A64 64 0 1 0 48 304a64 64 0 1 0 128 0zM16 480c0 8.8 7.2 16 16 16H192c8.8 0 16-7.2 16-16c0-26.5-21.5-48-48-48H64c-26.5 0-48 21.5-48 48zm96-256a80 80 0 1 1 0 160 80 80 0 1 1 0-160zM64 416h96c35.3 0 64 28.7 64 64c0 17.7-14.3 32-32 32H32c-17.7 0-32-14.3-32-32c0-35.3 28.7-64 64-64z"/></svg>
